site/img/logos/redegal.svg

<?xml version="1.0" encoding="UTF-8"?>
<svg width="400px" height="360px" viewBox="0 0 400 360" version="1.1" xmlns="http://www.w3.org/2000/svg" xmlns:xlink="http://www.w3.org/1999/xlink">
    <title>logos/redegal</title>
    <g id="logos/redegal" stroke="none" stroke-width="1" fill="none" fill-rule="evenodd">
        <path d="M321.35,212.189097 C325.55,212.189097 328.95,212.489097 331.5,213.039097 C334.05,213.589097 336.15,214.139097 337.8,214.639097 L337.8,256.089097 C337.8,262.889097 336.05,267.739097 332.55,270.639097 C329.05,273.539097 323.75,274.989097 316.65,274.989097 C313.7,274.989097 311.05,274.789097 308.7,274.339097 C306.35,273.889097 304.3,273.389097 302.6,272.789097 L303.75,267.589097 C305.15,268.239097 307.05,268.789097 309.5,269.239097 C311.95,269.689097 314.4,269.939097 316.85,269.939097 C322.25,269.939097 326.15,268.889097 328.6,266.839097 C331.05,264.739097 332.25,261.189097 332.25,256.189097 L332.2,253.189097 C331.85,253.489097 331.3,253.839097 330.6,254.189097 C329.9,254.589097 329.05,254.989097 328,255.389097 C326.95,255.789097 325.8,256.139097 324.5,256.389097 C323.2,256.639097 321.7,256.789097 320.05,256.789097 C317.4,256.789097 314.85,256.389097 312.4,255.539097 C309.95,254.689097 307.8,253.439097 305.95,251.689097 C304.1,249.939097 302.65,247.639097 301.5,244.889097 C300.4,242.089097 299.85,238.739097 299.85,234.739097 C299.85,231.539097 300.35,228.539097 301.35,225.789097 C302.35,223.039097 303.75,220.639097 305.6,218.639097 C307.45,216.639097 309.7,215.039097 312.35,213.889097 C315,212.739097 318,212.189097 321.35,212.189097 Z M248.6,190.289097 L248.6,257.039097 C246.9,257.639097 244.75,258.189097 242.1,258.689097 C239.45,259.239097 236.15,259.489097 232.1,259.489097 C228.75,259.489097 225.75,258.939097 223,257.889097 C220.3,256.789097 217.95,255.239097 215.95,253.189097 C214,251.139097 212.45,248.639097 211.4,245.739097 C210.3,242.789097 209.8,239.489097 209.8,235.789097 C209.8,232.339097 210.25,229.139097 211.15,226.239097 C212.05,223.339097 213.4,220.839097 215.15,218.739097 C216.9,216.639097 219.05,214.989097 221.6,213.839097 C224.15,212.689097 227.05,212.089097 230.35,212.089097 C233.35,212.089097 235.95,212.539097 238.1,213.339097 C240.3,214.189097 241.9,214.989097 242.9,215.739097 L242.9,191.339097 L248.6,190.289097 Z M186.05,211.989097 C191.6,211.989097 196.05,213.789097 199.35,217.439097 C202.65,221.089097 204.3,226.639097 204.3,234.239097 C204.3,234.689097 204.3,235.189097 204.25,235.639097 C204.2,236.089097 204.2,236.539097 204.1,236.939097 L172.2,236.939097 C172.4,242.489097 173.75,246.789097 176.35,249.789097 C178.95,252.789097 183.05,254.289097 188.65,254.289097 C191.75,254.289097 194.2,253.989097 196.05,253.389097 L197.0752,253.041097 C198.368,252.593097 199.36,252.209097 200,251.889097 L201.05,256.789097 C200.25,257.239097 198.7,257.789097 196.45,258.439097 C194.2,259.089097 191.55,259.389097 188.5,259.389097 C184.5,259.389097 181.1,258.789097 178.3,257.639097 C175.5,256.489097 173.2,254.839097 171.35,252.739097 C169.55,250.639097 168.2,248.139097 167.4,245.239097 C166.6,242.339097 166.2,239.139097 166.2,235.689097 C166.2,231.689097 166.75,228.239097 167.9,225.289097 C169.05,222.339097 170.55,219.839097 172.4,217.889097 C174.25,215.889097 176.35,214.439097 178.7,213.439097 C181.05,212.489097 183.5,211.989097 186.05,211.989097 Z M276.15,211.989097 C281.7,211.989097 286.15,213.789097 289.45,217.439097 C292.75,221.089097 294.4,226.639097 294.4,234.239097 C294.4,234.689097 294.4,235.189097 294.35,235.639097 C294.3,236.089097 294.3,236.539097 294.2,236.939097 L262.3,236.939097 C262.5,242.489097 263.85,246.789097 266.45,249.789097 C269.05,252.789097 273.15,254.289097 278.75,254.289097 C281.85,254.289097 284.3,253.989097 286.15,253.389097 L287.1752,253.041097 C288.468,252.593097 289.46,252.209097 290.1,251.889097 L291.15,256.789097 C290.35,257.239097 288.8,257.789097 286.55,258.439097 C284.3,259.089097 281.65,259.389097 278.6,259.389097 C274.6,259.389097 271.2,258.789097 268.4,257.639097 C265.6,256.489097 263.3,254.839097 261.45,252.739097 C259.65,250.639097 258.3,248.139097 257.5,245.239097 C256.7,242.339097 256.3,239.139097 256.3,235.689097 C256.3,231.689097 256.85,228.239097 258,225.289097 C259.15,222.339097 260.65,219.839097 262.5,217.889097 C264.35,215.889097 266.45,214.439097 268.8,213.439097 C271.15,212.489097 273.6,211.989097 276.15,211.989097 Z M361.65,211.989097 C364.65,211.989097 367.15,212.439097 369.25,213.239097 C371.35,214.089097 373,215.239097 374.3,216.739097 C375.6,218.239097 376.5,219.989097 377.1,222.039097 C377.7,224.089097 378,226.339097 378,228.739097 L378,257.389097 C377.52,257.549097 376.88,257.677097 376.08,257.824297 L374.130762,258.179917 C373.353906,258.319565 372.50625,258.464097 371.6,258.589097 C370.15,258.839097 368.5,258.989097 366.7,259.139097 C364.9,259.289097 363.1,259.339097 361.2,259.339097 C358.8,259.339097 356.6,259.089097 354.55,258.539097 C352.5,257.989097 350.75,257.189097 349.3,256.039097 C347.8,254.889097 346.65,253.439097 345.8,251.639097 C344.95,249.839097 344.55,247.689097 344.55,245.089097 C344.55,242.639097 345,240.539097 345.95,238.789097 C346.9,237.039097 348.2,235.589097 349.9,234.439097 C351.478571,233.371239 353.315816,232.562056 355.451767,232.051578 L355.95,231.939097 C358.3,231.389097 360.85,231.139097 363.6,231.139097 C364.4,231.139097 365.3,231.189097 366.2,231.289097 C367.1,231.389097 368,231.489097 368.85,231.639097 L369.552915,231.767668 C370.116327,231.874811 370.621429,231.981954 371.05,232.089097 C371.65,232.239097 372.1,232.389097 372.3,232.489097 L372.3,229.689097 C372.3,228.089097 372.2,226.589097 371.95,225.089097 C371.7,223.589097 371.2,222.239097 370.4,221.039097 C369.6,219.839097 368.5,218.889097 367.05,218.139097 C365.6,217.389097 363.75,217.039097 361.4,217.039097 C358.05,217.039097 355.55,217.289097 353.95,217.739097 L353.270408,217.928747 C351.966327,218.301341 350.992857,218.631954 350.35,218.889097 L349.55,213.889097 C350.55,213.439097 352.1,212.989097 354.15,212.589097 C356.2,212.189097 358.7,211.989097 361.65,211.989097 Z M393.25,190.289097 L393.25,247.389097 C393.25,248.789097 393.4,249.939097 393.65,250.789097 C393.9,251.639097 394.3,252.289097 394.85,252.789097 C395.4,253.289097 396.05,253.639097 396.9,253.889097 C397.75,254.139097 398.75,254.339097 399.95,254.489097 L399.15,259.239097 C397.2,259.189097 395.55,258.939097 394.1,258.489097 C392.65,258.039097 391.45,257.389097 390.5,256.489097 C389.55,255.589097 388.8,254.389097 388.3,252.989097 C387.8,251.539097 387.55,249.739097 387.55,247.589097 L387.55,191.339097 L393.25,190.289097 Z M68.3,158.939097 C72.8733333,158.939097 75.5302222,162.902652 75.9454519,163.593734 L81.85,173.889097 L87.45,172.389097 C88.45,172.139097 89.35,171.989097 90.25,171.989097 C95.2333333,171.989097 97.7828993,176.121909 98.5587999,178.53463 L98.65,178.839097 L101.7,190.189097 L107.5,190.189097 C116.308667,190.189097 116.638302,198.762865 116.65,199.312345 L116.65,249.789097 C116.65,257.99443 109.210498,258.842465 107.747259,258.929288 L107.5,258.939097 L37.4,258.939097 C30.0363636,258.939097 27.492562,256.288187 24.8471056,251.838166 L24.7,251.589097 L-0.55,207.889097 C-2.9,203.839097 -1.85,200.639097 -0.55,198.639097 C0.65,196.881954 2.18061224,195.82277 2.65641399,195.524519 L2.8,195.439097 L63.55,160.339097 C65.15,159.389097 66.75,158.939097 68.3,158.939097 Z M156.95,212.139097 C158.8,212.139097 160.6,212.289097 162.25,212.589097 L162.883333,212.709097 C164.197778,212.969097 165.136667,213.229097 165.7,213.489097 L164.55,218.389097 C164.1,218.139097 163.15,217.889097 161.7,217.639097 C160.25,217.389097 158.4,217.239097 156.05,217.239097 C153.6,217.239097 151.6,217.439097 150.1,217.789097 L149.2604,217.993097 C148.222,218.257097 147.51,218.489097 147.15,218.689097 L147.15,258.439097 L141.5,258.439097 L141.5,215.139097 C142.95,214.489097 145,213.839097 147.55,213.139097 C150.15,212.489097 153.25,212.139097 156.95,212.139097 Z M107.5,193.339097 L102.55,193.339097 L111.75,227.589097 C112.05,228.689097 112.15,229.689097 112.15,230.589097 C112.052381,234.981954 108.810034,237.230678 106.795175,238.172503 L106.65,238.239097 L106.35,238.389097 C106.15,238.489097 106,238.539097 105.85,238.589097 C105.694444,238.655763 105.558642,238.702677 105.455761,238.734227 L41.55,255.839097 L107.5,255.839097 L108.026324,255.794112 C109.528131,255.626145 113.388143,254.809375 113.545069,250.089218 L113.55,249.789097 L113.55,199.389097 L113.505016,198.862772 C113.337048,197.360966 112.520279,193.500954 107.800122,193.344028 L107.5,193.339097 Z M230.8,217.289097 C228,217.289097 225.65,217.789097 223.75,218.789097 C221.85,219.789097 220.3,221.139097 219.15,222.789097 C218,224.439097 217.15,226.439097 216.6,228.689097 C216.05,230.939097 215.8,233.339097 215.8,235.839097 C215.8,241.789097 217.3,246.389097 220.3,249.589097 C223.3,252.789097 227.25,254.389097 232.15,254.389097 C234.775,254.389097 236.960547,254.257261 238.624243,254.034787 L238.95,253.989097 C240.7,253.739097 242,253.439097 242.85,253.139097 L242.85,221.289097 C242.3,220.889097 241.65,220.439097 240.85,219.989097 C240.05,219.539097 239.15,219.089097 238.1,218.689097 C237.05,218.289097 235.9,217.939097 234.65,217.689097 C233.4,217.439097 232.15,217.289097 230.8,217.289097 Z M363.35,236.189097 C361.95,236.189097 360.5,236.289097 358.95,236.489097 C357.45,236.689097 356,237.139097 354.75,237.789097 C353.45,238.439097 352.4,239.389097 351.6,240.539097 C350.8,241.689097 350.35,243.239097 350.35,245.189097 C350.35,246.889097 350.65,248.339097 351.2,249.489097 C351.75,250.639097 352.55,251.589097 353.55,252.289097 C354.55,252.989097 355.8,253.489097 357.25,253.839097 C358.7,254.139097 360.35,254.339097 362.15,254.339097 C364.35,254.339097 366.3,254.289097 368,254.139097 C369.65,253.989097 371.1,253.789097 372.25,253.589097 L372.25,237.589097 C371.6,237.289097 370.6,236.989097 369.15,236.689097 C367.75,236.389097 365.8,236.189097 363.35,236.189097 Z M89.5,193.289097 L37.4,193.289097 L36.8736756,193.334081 C35.3718693,193.502048 31.5118574,194.318818 31.3549313,199.038975 L31.35,199.339097 L31.3512517,249.820139 C31.3627219,250.064836 31.4692308,251.712173 32.3,253.189097 C33.2625,253.23493 34.2670139,252.944652 35.2750289,252.395289 L35.55,252.239097 L96.3,217.139097 L96.5183938,217.000434 C97.5294822,216.326986 101.008243,213.603698 98.645769,209.152898 L98.5,208.889097 L89.5,193.289097 Z M99.35,193.339097 L93.1,193.339097 L101.2,207.389097 C105.065385,214.132045 99.8922666,218.477024 98.2929281,219.600115 L97.85,219.889097 L40.75,252.839097 L104.5,235.739097 L104.646311,235.702578 C105.534222,235.452652 109.14,234.055763 109,230.089097 C109,229.67243 108.930556,229.186319 108.820602,228.688634 L108.75,228.389097 L99.35,193.339097 Z M321.5,217.339097 C319.05,217.339097 316.85,217.789097 314.95,218.589097 C313.05,219.439097 311.4,220.639097 310.05,222.189097 C308.7,223.739097 307.7,225.589097 307,227.739097 C306.3,229.889097 305.95,232.239097 305.95,234.789097 C305.95,237.601597 306.301563,240.018589 307.045886,242.081272 L307.2,242.489097 C308,244.639097 309.1,246.389097 310.4,247.739097 C311.7,249.089097 313.2,250.089097 314.9,250.689097 C316.6,251.289097 318.35,251.589097 320.1,251.589097 C322.7,251.589097 325.05,251.189097 327.15,250.439097 C329.3,249.689097 330.95,248.789097 332.1,247.789097 L332.1,218.589097 C331.1,218.289097 329.8,218.039097 328.25,217.739097 C326.65,217.489097 324.4,217.339097 321.5,217.339097 Z M68.25,162.039097 C67.3333333,162.039097 66.3326389,162.29118 65.3249421,162.833859 L65.05,162.989097 L4.18867182,198.158006 C3.35234485,198.690273 -0.500889342,201.449954 1.95423099,206.075295 L2.1,206.339097 L25.25,246.439097 L13.25,201.739097 C12.0304878,197.300072 13.809191,194.479132 15.5217314,192.904837 L15.65,192.789097 C17.3724138,191.25289 19.3115339,190.626849 19.6515109,190.547805 L19.7,190.539097 L78.75,174.739097 L73.3,165.239097 L73.093163,164.941952 C72.5194215,164.147774 70.7863636,162.039097 68.25,162.039097 Z M80.7,178.089097 L80.35,177.489097 L20.5,193.539097 C19.9105263,193.735588 14.9293013,195.283387 16.1771325,200.648039 L16.25,200.939097 L28.2,245.539097 L28.2,199.289097 C28.2,194.589097 30.75,192.339097 32.85,191.289097 C34.5366667,190.445763 36.2233333,190.248985 36.9636778,190.203071 L37.35,190.189097 L87.7,190.189097 L80.7,178.089097 Z M186.1,217.089097 C184.05,217.089097 182.2,217.489097 180.6,218.339097 C179,219.139097 177.6,220.239097 176.4,221.639097 C175.2,223.039097 174.25,224.589097 173.6,226.439097 C172.95,228.239097 172.55,230.139097 172.4,232.139097 L198.4,232.089097 C198.3,227.339097 197.15,223.639097 195.05,221.039097 C192.95,218.389097 189.95,217.089097 186.1,217.089097 Z M276.25,217.089097 C274.2,217.089097 272.35,217.489097 270.75,218.339097 C269.15,219.139097 267.75,220.239097 266.55,221.639097 C265.35,223.039097 264.4,224.589097 263.75,226.439097 C263.1,228.239097 262.7,230.139097 262.55,232.139097 L288.55,232.089097 C288.45,227.339097 287.3,223.639097 285.2,221.039097 C283.1,218.389097 280.1,217.089097 276.25,217.089097 Z M90.25,175.089097 C89.75,175.089097 89.2152778,175.158541 88.6458333,175.29743 L83.5,176.689097 L91.3,190.189097 L98.5,190.189097 L95.6225142,179.543005 C95.4162965,178.866137 94.0704545,175.089097 90.25,175.089097 Z" id="Shape" fill="#FFFFFF" fill-rule="nonzero"></path>
    </g>
</svg>

<svg width="400" height="360" viewBox="0 0 400 360" xmlns="http://www.w3.org/2000/svg"><path d="M321.35 212.19c4.2 0 7.6.3 10.15.85 2.55.55 4.65 1.1 6.3 1.6v41.45c0 6.8-1.75 11.65-5.25 14.55-3.5 2.9-8.8 4.35-15.9 4.35-2.95 0-5.6-.2-7.95-.65-2.35-.45-4.4-.95-6.1-1.55l1.15-5.2c1.4.65 3.3 1.2 5.75 1.65 2.45.45 4.9.7 7.35.7 5.4 0 9.3-1.05 11.75-3.1 2.45-2.1 3.65-5.65 3.65-10.65l-.05-3c-.35.3-.9.65-1.6 1-.7.4-1.55.8-2.6 1.2-1.05.4-2.2.75-3.5 1-1.3.25-2.8.4-4.45.4-2.65 0-5.2-.4-7.65-1.25s-4.6-2.1-6.45-3.85c-1.85-1.75-3.3-4.05-4.45-6.8-1.1-2.8-1.65-6.15-1.65-10.15 0-3.2.5-6.2 1.5-8.95 1-2.75 2.4-5.15 4.25-7.15s4.1-3.6 6.75-4.75c2.65-1.15 5.65-1.7 9-1.7zm-72.75-21.9v66.75c-1.7.6-3.85 1.15-6.5 1.65-2.65.55-5.95.8-10 .8-3.35 0-6.35-.55-9.1-1.6-2.7-1.1-5.05-2.65-7.05-4.7-1.95-2.05-3.5-4.55-4.55-7.45-1.1-2.95-1.6-6.25-1.6-9.95 0-3.45.45-6.65 1.35-9.55.9-2.9 2.25-5.4 4-7.5 1.75-2.1 3.9-3.75 6.45-4.9 2.55-1.15 5.45-1.75 8.75-1.75 3 0 5.6.45 7.75 1.25 2.2.85 3.8 1.65 4.8 2.4v-24.4l5.7-1.05zm-62.55 21.7c5.55 0 10 1.8 13.3 5.45 3.3 3.65 4.95 9.2 4.95 16.8 0 .45 0 .95-.05 1.4-.05.45-.05.9-.15 1.3h-31.9c.2 5.55 1.55 9.85 4.15 12.85 2.6 3 6.7 4.5 12.3 4.5 3.1 0 5.55-.3 7.4-.9l1.025-.349c1.293-.448 2.285-.832 2.925-1.152l1.05 4.9c-.8.45-2.35 1-4.6 1.65-2.25.65-4.9.95-7.95.95-4 0-7.4-.6-10.2-1.75-2.8-1.15-5.1-2.8-6.95-4.9-1.8-2.1-3.15-4.6-3.95-7.5-.8-2.9-1.2-6.1-1.2-9.55 0-4 .55-7.45 1.7-10.4s2.65-5.45 4.5-7.4c1.85-2 3.95-3.45 6.3-4.45 2.35-.95 4.8-1.45 7.35-1.45zm90.1 0c5.55 0 10 1.8 13.3 5.45 3.3 3.65 4.95 9.2 4.95 16.8 0 .45 0 .95-.05 1.4-.05.45-.05.9-.15 1.3h-31.9c.2 5.55 1.55 9.85 4.15 12.85 2.6 3 6.7 4.5 12.3 4.5 3.1 0 5.55-.3 7.4-.9l1.025-.349c1.293-.448 2.285-.832 2.925-1.152l1.05 4.9c-.8.45-2.35 1-4.6 1.65-2.25.65-4.9.95-7.95.95-4 0-7.4-.6-10.2-1.75-2.8-1.15-5.1-2.8-6.95-4.9-1.8-2.1-3.15-4.6-3.95-7.5-.8-2.9-1.2-6.1-1.2-9.55 0-4 .55-7.45 1.7-10.4s2.65-5.45 4.5-7.4c1.85-2 3.95-3.45 6.3-4.45 2.35-.95 4.8-1.45 7.35-1.45zm85.5 0c3 0 5.5.45 7.6 1.25 2.1.85 3.75 2 5.05 3.5 1.3 1.5 2.2 3.25 2.8 5.3.6 2.05.9 4.3.9 6.7v28.65c-.48.16-1.12.287-1.92.434l-1.95.356c-.776.14-1.624.284-2.53.41-1.45.25-3.1.4-4.9.55-1.8.15-3.6.2-5.5.2-2.4 0-4.6-.25-6.65-.8-2.05-.55-3.8-1.35-5.25-2.5-1.5-1.15-2.65-2.6-3.5-4.4-.85-1.8-1.25-3.95-1.25-6.55 0-2.45.45-4.55 1.4-6.3s2.25-3.2 3.95-4.35c1.579-1.069 3.416-1.878 5.552-2.388l.498-.113c2.35-.55 4.9-.8 7.65-.8.8 0 1.7.05 2.6.15.9.1 1.8.2 2.65.35l.703.129a27.5 27.5 0 011.497.321c.6.15 1.05.3 1.25.4v-2.8c0-1.6-.1-3.1-.35-4.6-.25-1.5-.75-2.85-1.55-4.05-.8-1.2-1.9-2.15-3.35-2.9-1.45-.75-3.3-1.1-5.65-1.1-3.35 0-5.85.25-7.45.7l-.68.19c-1.304.372-2.277.703-2.92.96l-.8-5c1-.45 2.55-.9 4.6-1.3s4.55-.6 7.5-.6zm31.6-21.7v57.1c0 1.4.15 2.55.4 3.4.25.85.65 1.5 1.2 2 .55.5 1.2.85 2.05 1.1.85.25 1.85.45 3.05.6l-.8 4.75c-1.95-.05-3.6-.3-5.05-.75-1.45-.45-2.65-1.1-3.6-2-.95-.9-1.7-2.1-2.2-3.5-.5-1.45-.75-3.25-.75-5.4v-56.25l5.7-1.05zM68.3 158.94c4.573 0 7.23 3.963 7.645 4.654l5.905 10.295 5.6-1.5c1-.25 1.9-.4 2.8-.4 4.983 0 7.533 4.133 8.309 6.546l.091.304 3.05 11.35h5.8c8.809 0 9.138 8.574 9.15 9.123v50.477c0 8.205-7.44 9.053-8.903 9.14l-.247.01H37.4c-7.364 0-9.907-2.65-12.553-7.1l-.147-.25-25.25-43.7c-2.35-4.05-1.3-7.25 0-9.25a11.591 11.591 0 013.206-3.114l.144-.086 60.75-35.1c1.6-.95 3.2-1.4 4.75-1.4zm88.65 53.2c1.85 0 3.65.15 5.3.45l.633.12c1.315.26 2.254.52 2.817.78l-1.15 4.9c-.45-.25-1.4-.5-2.85-.75-1.45-.25-3.3-.4-5.65-.4-2.45 0-4.45.2-5.95.55l-.84.203c-1.038.264-1.75.496-2.11.696v39.75h-5.65v-43.3c1.45-.65 3.5-1.3 6.05-2 2.6-.65 5.7-1 9.4-1zm-49.45-18.8h-4.95l9.2 34.25c.3 1.1.4 2.1.4 3-.098 4.392-3.34 6.64-5.355 7.583l-.145.066-.3.15c-.2.1-.35.15-.5.2a3.941 3.941 0 01-.394.145L41.55 255.84h65.95l.526-.045c1.502-.168 5.362-.985 5.52-5.705l.004-.3v-50.4l-.045-.526c-.168-1.502-.985-5.362-5.705-5.519l-.3-.005zm123.3 23.95c-2.8 0-5.15.5-7.05 1.5-1.9 1-3.45 2.35-4.6 4-1.15 1.65-2 3.65-2.55 5.9-.55 2.25-.8 4.65-.8 7.15 0 5.95 1.5 10.55 4.5 13.75 3 3.2 6.95 4.8 11.85 4.8 2.625 0 4.81-.133 6.474-.355l.326-.046c1.75-.25 3.05-.55 3.9-.85v-31.85a20.261 20.261 0 00-4.75-2.6c-1.05-.4-2.2-.75-3.45-1s-2.5-.4-3.85-.4zm132.55 18.9c-1.4 0-2.85.1-4.4.3-1.5.2-2.95.65-4.2 1.3-1.3.65-2.35 1.6-3.15 2.75-.8 1.15-1.25 2.7-1.25 4.65 0 1.7.3 3.15.85 4.3s1.35 2.1 2.35 2.8c1 .7 2.25 1.2 3.7 1.55 1.45.3 3.1.5 4.9.5 2.2 0 4.15-.05 5.85-.2 1.65-.15 3.1-.35 4.25-.55v-16c-.65-.3-1.65-.6-3.1-.9-1.4-.3-3.35-.5-5.8-.5zM89.5 193.29H37.4l-.526.044c-1.502.168-5.362.985-5.52 5.705l-.004.3.001 50.481c.012.245.118 1.892.949 3.37.963.045 1.967-.245 2.975-.795l.275-.156 60.75-35.1.218-.139c1.011-.673 4.49-3.396 2.128-7.847l-.146-.264-9-15.6zm9.85.05H93.1l8.1 14.05c3.865 6.742-1.308 11.087-2.907 12.21l-.443.29-57.1 32.95 63.75-17.1.146-.037c.888-.25 4.494-1.647 4.354-5.614 0-.417-.07-.903-.18-1.4l-.07-.3-9.4-35.05zm222.15 24c-2.45 0-4.65.45-6.55 1.25-1.9.85-3.55 2.05-4.9 3.6-1.35 1.55-2.35 3.4-3.05 5.55-.7 2.15-1.05 4.5-1.05 7.05 0 2.812.352 5.229 1.096 7.291l.154.408c.8 2.15 1.9 3.9 3.2 5.25 1.3 1.35 2.8 2.35 4.5 2.95 1.7.6 3.45.9 5.2.9 2.6 0 4.95-.4 7.05-1.15 2.15-.75 3.8-1.65 4.95-2.65v-29.2c-1-.3-2.3-.55-3.85-.85-1.6-.25-3.85-.4-6.75-.4zm-253.25-55.3c-.917 0-1.917.251-2.925.794l-.275.155-60.861 35.169c-.837.532-4.69 3.292-2.235 7.917l.146.264 23.15 40.1-12-44.7c-1.22-4.439.56-7.26 2.272-8.834l.128-.116c1.722-1.536 3.662-2.162 4.002-2.241l.048-.009 59.05-15.8-5.45-9.5-.207-.297c-.574-.794-2.307-2.903-4.843-2.903zm12.45 16.05l-.35-.6-59.85 16.05c-.59.196-5.57 1.743-4.323 7.108l.073.291 11.95 44.6v-46.25c0-4.7 2.55-6.95 4.65-8 1.687-.843 3.373-1.04 4.114-1.086l.386-.014H87.7l-7-12.1zm105.4 39c-2.05 0-3.9.4-5.5 1.25-1.6.8-3 1.9-4.2 3.3-1.2 1.4-2.15 2.95-2.8 4.8-.65 1.8-1.05 3.7-1.2 5.7l26-.05c-.1-4.75-1.25-8.45-3.35-11.05-2.1-2.65-5.1-3.95-8.95-3.95zm90.15 0c-2.05 0-3.9.4-5.5 1.25-1.6.8-3 1.9-4.2 3.3-1.2 1.4-2.15 2.95-2.8 4.8-.65 1.8-1.05 3.7-1.2 5.7l26-.05c-.1-4.75-1.25-8.45-3.35-11.05-2.1-2.65-5.1-3.95-8.95-3.95zm-186-42c-.5 0-1.035.069-1.604.207L83.5 176.69l7.8 13.5h7.2l-2.877-10.646c-.207-.677-1.553-4.454-5.373-4.454z" fill="#FFF"/></svg>
